X:1
T:Title
%%score { ( 1 4 ) | ( 2 3 ) }
L:1/8
M:6/8
K:D
V:1 treble nm="Grand Piano"
V:4 treble 
V:2 bass 
V:3 bass 
V:1
 z3 z2[Q:1/4=92] [FA] | [FA]2 [GB] [FA]2 [A,DF] | .[A,CE]2 [A,CE] F2 F | E2 A ^GAB | A3- A2 A | %5
 [FA]2 [GB] [FA]2 [A,DF] | .[A,CE]2 [A,CE] [A,DF]2 [A,DF] | [A,CE][EA][EAc] [^Ge][Gd][EAc] | %8
[M:7/8] ^G-[Gc][DGB] [CA]3 [EAc] |[M:3/4] [DAd]2 [DFA] [DFA]2 [A,DF] | [CE]F [A,EG] [A,DF]3 | %11
 [Fd]3 [A,FA]2 [A,DF] | [CE]F [A,EG] [A,DF]2 [DFA] | B2 BB cd | [Fd]2 [FA] [FA]2 [DFA] | %15
 [GA]2 z .[GA]3 | [FA]6 | B2 BB cd | [Fd]2 [FA] [FA]2 [DB] | .A2 z2 z2 |[M:5/8] D-D- D3 |] %21
V:2
 z3 z2 [D,D] | [D,D]2 [D,D] [D,D]2 D, | z DA,, [D,A,D]2 [D,A,D] | [E,A,C]2 [E,CE] B,C[E,DE] | %4
 [A,CE]3- [A,CE]2 [A,CG] | [D,D]2 [D,D] [D,D]2 D, | z DA,, D,2 D, | z CE, [E,B,][E,B,]E, | %8
[M:7/8] z EE, A,3 G, |[M:3/4] F,2 D, D,2 F, | A,2 z2 z2 | [D,A,]3 D,2 F, | A,2 z2 z2 | z2 z D z2 | %14
 [D,A,]2 [D,D] [D,D]2 D,/F,/ | A,2 A, A,,2 A,, | z2 A, D2 D, | z2 z D z2 | %18
 [D,A,]2 [D,D] [D,A,]2 [G,,G,] | .[A,,F,]2 [A,,A,] [A,,A,]2 [A,,A,] | %20
[M:5/8] [D,F,]-[D,F,]- [D,F,]3 |] %21
V:3
 x6 | x6 | .A,,3 z3 | z3 .[E,E]3 | x6 | x6 | .A,,3 z3 | .E,3 z3 |[M:7/8] E,2 z z z z2 |[M:3/4] x6 | %10
 z D A,, D,3 | x6 | z D A,, D,2 D, | [G,DG]2 [G,DG][G,G]- [G,CG][G,B,G] | x6 | x6 | D,6 | %17
 [G,DG]2 [G,DG][G,G]- [G,CG][G,B,G] | x6 | x6 |[M:5/8] x5 |] %21
V:4
 x6 | x6 | x6 | x6 | x6 | x6 | x6 | x6 |[M:7/8] [DB] z z z z z2 |[M:3/4] x6 | x6 | x6 | x6 | x6 | %14
 x6 | C2- [CGB] C2- [CGB] | D2 z2 z [DFA] | x6 | x6 | D-[A,DG] [DF] [CF]2 [CE] |[M:5/8] x5 |] %21

